X:6
T:Bill Clancy's Delight
T:Pretty Peg
R:Real
C:Traditional
M:C|
L:1/8
Q:1/4=60
% setting adapted from O'Neill's No. 1465 
K:D treble
d2fd AFDF |  d2fd egfe | d2fd AFDF | GEFD E4 |
d2fd AFDF |  d2fd egfe | d2fd AFDF | dfeg fdd2 ||
((3FED) (AD BDAD) | ((3FED) (AD cEEG) | ((3FED) (AD BDAD) | GEFD ADDG |
((3FED) (AD BDAD) | ((3FED) (AD cEEG) | FAdf ecdB | Agfe fdd2 ||
% K:G
% | d | g2 fd g2 fd | g2 fd e3 d | ee ef gg B2 | dd cA G3 A | 
% BB B/A/G/A/ BG2 A | BB B/A/G/A/ B3 |]





% from "The Pocket Whistle Tutor" Father Eamonn gave me July 1998 
